X:2888
T:Charlie McKerron's
M:2/2
L:1/8
S:Emer Mayock, _Merry Bits of Timber_
R:Reel
K:ADor
~A3B cGcd|~e3d eA~A2|~g3f g2BA|GABG cGBG|
~A3B cGcd|~e3d eA~A2|~g3f g2BA|1 GABG A4:||2 GABG A3^g|
||:~a3^g aged|eA~A2 eAfA|~g3f g2BA|GABG cGBG|
1 ^cA~A2 cAdA|^cA~A2 eaaf|~g3f g2BA|GABG A4:||
2 ~A3B cGcd|~e3d eA~A2|~g3f g2BA|GABG A4||


